X: 215
T: Summer Evening
B: O'Neill's 215
N: "Moderate"
N: "Collected by F.O'Neill"
Z: 1997 by John Chambers <jc@trillian.mit.edu>
M: 3/4
L: 1/8
K:A
E \
| A2- A(cBA) | G2-G (Bcd) | e2 fdBA | G4 ((3EFG) \
| A2- A(cBA) | G3 A (B/c/d) | e2 fdBG | A4 ||
|| (c>d) \
| e2- e(fed) |  c2- c(edB) | A2- A(BAG) | E4 ((3EFG) \
| A2- A(cBA) | G3 A (B/c/d) | e2 fdBG | A4 ||


